storage/app/icons/phosphoricons/bold/google-podcasts-logo-bold.svg

<svg xmlns="http://www.w3.org/2000/svg" fill="currentColor" viewBox="0 0 256 256"><path d="M140 16v32a12 12 0 0 1-24 0V16a12 12 0 0 1 24 0m36 36a12 12 0 0 0-12 12v32a12 12 0 0 0 24 0V64a12 12 0 0 0-12-12m-48 144a12 12 0 0 0-12 12v32a12 12 0 0 0 24 0v-32a12 12 0 0 0-12-12m0-120a12 12 0 0 0-12 12v80a12 12 0 0 0 24 0V88a12 12 0 0 0-12-12M80 52a12 12 0 0 0-12 12v56a12 12 0 0 0 24 0V64a12 12 0 0 0-12-12m96 72a12 12 0 0 0-12 12v56a12 12 0 0 0 24 0v-56a12 12 0 0 0-12-12M32 100a12 12 0 0 0-12 12v32a12 12 0 0 0 24 0v-32a12 12 0 0 0-12-12m48 48a12 12 0 0 0-12 12v32a12 12 0 0 0 24 0v-32a12 12 0 0 0-12-12m144-48a12 12 0 0 0-12 12v32a12 12 0 0 0 24 0v-32a12 12 0 0 0-12-12"/></svg>

<svg xmlns="http://www.w3.org/2000/svg" viewBox="0 0 256 256" fill="currentColor"><path d="M140,16V48a12,12,0,0,1-24,0V16a12,12,0,0,1,24,0Zm36,36a12,12,0,0,0-12,12V96a12,12,0,0,0,24,0V64A12,12,0,0,0,176,52ZM128,196a12,12,0,0,0-12,12v32a12,12,0,0,0,24,0V208A12,12,0,0,0,128,196Zm0-120a12,12,0,0,0-12,12v80a12,12,0,0,0,24,0V88A12,12,0,0,0,128,76ZM80,52A12,12,0,0,0,68,64v56a12,12,0,0,0,24,0V64A12,12,0,0,0,80,52Zm96,72a12,12,0,0,0-12,12v56a12,12,0,0,0,24,0V136A12,12,0,0,0,176,124ZM32,100a12,12,0,0,0-12,12v32a12,12,0,0,0,24,0V112A12,12,0,0,0,32,100Zm48,48a12,12,0,0,0-12,12v32a12,12,0,0,0,24,0V160A12,12,0,0,0,80,148Zm144-48a12,12,0,0,0-12,12v32a12,12,0,0,0,24,0V112A12,12,0,0,0,224,100Z"/></svg>
